X:289
T:Despair Not, O Heart
%%stretchlast false
M:2/4
L:1/4
K:Eb clef=C1
"^I"[EGe] "^IV¹"[CAea] | "^ii7¹"[A,cef]/ "^V"[B,Bdf]/ "^I"[E,Beg] | "^vii°¹"[F,Adf]/ "^I¹"[G,GBe]/ "^ii¹"[A,Fcf] | "^V7"[B,Adf] "^I"[EGe] | "^vi"[CGe] "^vii°¹"[FAdf] | "^I"[EBeg]/ "^vi"[Cceg]/ "^V"[B,Fdb] | "^V7"[B,Fda]/ "^vi"[CEeg]/ "^ii¹"[A,cf]2 | "^V/vi"[G,=Bdg] | "^vi"[CGce] "^I"[EGBg] | "^II7³"[E=Acf]/ "^V¹"[DFBf]/ "^II7²"[CF=Ae] | "^V"[B,FBd]/ [B,DB]/ "^II7"[F,E=Ac]2 | "^V"[B,DB] | "^I¹"[G,Eeb] "^IV"[A,Eec'] | "^♯iii"[Ffa]/ "^ii7³"[Ecfa]/ "^V¹"[DBfb] | "^V7"[B,Fda]/ "^vi"[CEeg]/ "^ii¹"[A,Acf] | "^V7"[B,Adf] "^I"[E,GBe] |]
